symbolic/legacy/system-software-install-symbolic.svg

<?xml version="1.0" encoding="UTF-8" standalone="no"?>
<svg
   height="16px"
   viewBox="0 0 16 16"
   width="16px"
   version="1.1"
   id="svg3"
   xmlns="http://www.w3.org/2000/svg"
   xmlns:svg="http://www.w3.org/2000/svg">
  <defs
     id="defs3" />
  <path
     id="path1"
     style="opacity:0.7;fill:#000000;stroke-width:1.14414"
     d="M 3.4589844,0 C 1.9165328,0 0.59604532,1.0354041 0.15625,2.4453125 0.12282096,2.5524803 0.093267,2.6622398 0.0703125,2.7734375 v 0.00195 0.00195 C 0.04748064,2.8885748 0.02935087,3.002515 0.01757813,3.1171875 v 0.00195 0.00195 C 0.00593239,3.2358036 0,3.3511864 0,3.46875 c -1.4988295e-6,0.00132 0,0.00259 0,0.00391 V 4.5566406 12.53125 C 0,14.433348 1.5621913,16 3.4589844,16 H 11.005859 L 9,13.708984 H 3.4589844 c -0.6694566,0 -1.1738282,-0.506406 -1.1738282,-1.177734 V 6.5976562 c 0.3686679,0.174104 0.7645156,0.2851563 1.1738282,0.2851563 H 6.859375 l 0,0.6699213 2.2851562,1.13086 0,-1.8007813 h 0.023438 V 5.7324219 H 9.1445312 V 2.296875 h 3.3964848 c 0.543933,0 0.979063,0.3333924 1.123046,0.8183594 0.03288,0.1107338 0.05041,0.2290932 0.05078,0.3535156 v 1.0878906 c 0,0.2418133 -0.06467,0.4615842 -0.179688,0.6445313 h 0.179688 1.253906 V 5.6582031 10.693359 H 16 V 4.5566406 3.46875 c -1.35e-4,-0.1188543 -0.0055,-0.2356363 -0.01758,-0.3515625 -0.01177,-0.1146725 -0.0299,-0.2286127 -0.05273,-0.3398437 v -0.00195 -0.00195 C 15.906732,2.6622398 15.877179,2.5524803 15.84375,2.4453125 15.403955,1.0354041 14.083466,0 12.541016,0 H 9.1445312 6.859375 Z m 0,2.296875 H 6.859375 V 5.7324219 H 3.4589844 c -0.6694566,0 -1.1738282,-0.5044521 -1.1738282,-1.1757813 V 3.46875 c 1.249e-4,-0.041913 0.00188,-0.082525 0.00586,-0.1230469 0.00374,-0.039304 0.010378,-0.079324 0.017578,-0.1171875 v -0.00195 -0.00195 c 0.0073,-0.037775 0.016738,-0.073193 0.027344,-0.109375 C 2.4799217,2.6302674 2.9150509,2.296875 3.4589844,2.296875 Z m 12.5351566,10.431641 -2.808594,3.210937 c 1.531248,-0.294258 2.717625,-1.616394 2.808594,-3.210937 z" />
  <path
     id="path4"
     style="color:#000000;fill:#000000;fill-opacity:1;stroke-width:0.279979;stroke-miterlimit:4.1"
     d="m 9.9688735,6.0007196 v 5.4924274 h -1.84448 l 3.9443335,4.507573 3.944331,-4.507573 h -1.84448 V 6.0007196 Z" />
</svg>

<?xml version="1.0" encoding="UTF-8" standalone="no"?>
<svg
   height="16px"
   viewBox="0 0 16 16"
   width="16px"
   version="1.1"
   id="svg3"
   xmlns="http://www.w3.org/2000/svg"
   xmlns:svg="http://www.w3.org/2000/svg">
  <defs
     id="defs3" />
  <path
     id="path1"
     style="fill:#000000;stroke-width:1.14414;opacity:0.7"
     d="M 3.4589844 0 C 1.9165328 0 0.59604532 1.0354041 0.15625 2.4453125 C 0.12282096 2.5524803 0.093267001 2.6622398 0.0703125 2.7734375 L 0.0703125 2.7753906 L 0.0703125 2.7773438 C 0.047480639 2.8885748 0.029350868 3.002515 0.017578125 3.1171875 L 0.017578125 3.1191406 L 0.017578125 3.1210938 C 0.0059323929 3.2358036 -9.2518585e-17 3.3511864 0 3.46875 C -1.4988295e-06 3.4700673 -2.0498197e-19 3.4713386 0 3.4726562 L 0 4.5566406 L 0 12.53125 C 0 14.433348 1.5621913 16 3.4589844 16 L 11.005859 16 L 9 13.708984 L 3.4589844 13.708984 C 2.7895278 13.708984 2.2851562 13.202578 2.2851562 12.53125 L 2.2851562 6.5976562 C 2.6538241 6.7717602 3.0496718 6.8828125 3.4589844 6.8828125 L 6.859375 6.8828125 L 6.859375 10.361328 L 9.1445312 11.492188 L 9.1445312 6.8828125 L 9.1679688 6.8828125 L 9.1679688 5.7324219 L 9.1445312 5.7324219 L 9.1445312 2.296875 L 12.541016 2.296875 C 13.084949 2.296875 13.520079 2.6302674 13.664062 3.1152344 C 13.69694 3.2259682 13.714474 3.3443276 13.714844 3.46875 L 13.714844 4.5566406 C 13.714844 4.7984539 13.650171 5.0182248 13.535156 5.2011719 L 13.714844 5.2011719 L 14.96875 5.2011719 L 14.96875 5.6582031 L 14.96875 10.693359 L 16 10.693359 L 16 4.5566406 L 16 3.46875 C 15.999865 3.3498957 15.994456 3.2331137 15.982422 3.1171875 C 15.970649 3.002515 15.952518 2.8885748 15.929688 2.7773438 L 15.929688 2.7753906 L 15.929688 2.7734375 C 15.906732 2.6622398 15.877179 2.5524803 15.84375 2.4453125 C 15.403955 1.0354041 14.083466 0 12.541016 0 L 9.1445312 0 L 6.859375 0 L 3.4589844 0 z M 3.4589844 2.296875 L 6.859375 2.296875 L 6.859375 5.7324219 L 3.4589844 5.7324219 C 2.7895278 5.7324219 2.2851562 5.2279698 2.2851562 4.5566406 L 2.2851562 3.46875 C 2.2852811 3.4268367 2.2870392 3.3862253 2.2910156 3.3457031 C 2.2947513 3.3063991 2.3013933 3.2663792 2.3085938 3.2285156 L 2.3085938 3.2265625 L 2.3085938 3.2246094 C 2.3158972 3.1868341 2.3253313 3.1514162 2.3359375 3.1152344 C 2.4799217 2.6302674 2.9150509 2.296875 3.4589844 2.296875 z M 15.994141 12.728516 L 13.185547 15.939453 C 14.716795 15.645195 15.903172 14.323059 15.994141 12.728516 z " />
  <path
     id="path4"
     style="color:#000000;fill:#000000;fill-opacity:1;stroke-width:0.279979;stroke-miterlimit:4.1"
     d="m 9.9688735,6.0007196 v 5.4924274 h -1.84448 l 3.9443335,4.507573 3.944331,-4.507573 h -1.84448 V 6.0007196 Z" />
</svg>
